!! Dmitri Kabalevsky, From Five Sets of Variations, Opus 51 (for piano)
!! "Five Happy Variations on a Russian Folksong"
!! Variation 4
!! Allegro
!! Tempo: quarter-note equals 144-160 beats per minute.
**kern	**kern	**kern
*M2/4	*M2/4	*M2/4
*F:	*F:	*F:
*M2/4	*M2/4	*M2/4
=1	=1	=1
4r	2f	2a
4c	.	.
=2	=2	=2
4r	2e 2a	2cc
4c	.	.
=3	=3	=3
4r	2g	2b-
4c	.	.
=4	=4	=4
4r	2f 2b-	2dd
4c	.	.
=5	=5	=5
4r	2e	2g
4C	.	.
=6	=6	=6
4r	2d 2g	2b-
4C	.	.
=7	=7	=7
4r	2f	2a
4F	.	.
=8	=8	=8
4r	2e 2a	2cc
4F	.	.
=9	=9	=9
4r	2b-	2dd
4B-	.	.
=10	=10	=10
4r	2a 2dd	2ff
4A	.	.
=11	=11	=11
4r	2g	2b-
4G	.	.
=12	=12	=12
4r	2f 2b-	2dd
4F	.	.
=13	=13	=13
4r	4e	{4g
4C	.	4b-}
=14	=14	=14
4r	{4d	{4a
4C	4e}	4g}
=15	=15	=15
4r	2f	2f
4F	.	.
=16	=16	=16
{4G	4f	4f
4A}	4r	4r
=17	=17	=17
2B-	4r	4r
.	4b-	4dd
=18	=18	=18
2A	4r	4r
.	4a 4dd	4ff
=19	=19	=19
2G	4r	4r
.	4g	4b-
=20	=20	=20
2F	4r	4r
.	4f 4b-	4dd
=21	=21	=21
4E	4r	4r
{4C	4e 4a	4cc
=22	=22	=22
4D	4r	4r
4E	4B- 4d	4g
=23	=23	=23
4F	4r	4r
4E	[4A 4c	[4f
=24	=24	=24
4F	4A 4c]	4f]
{8A	4r	4r
8c}	.	.
!! attacka
==	==	==
*-	*-	*-
